X: 9081
T: Da New Rigged Ship
R: reel
M: 4/4
K: Adorian
eg|a2 ab ageg|a2 ab agef|g2 gg fgag|f2 d2 d2 eg|
a2 ab ageg|a2 ab agef|g2 gg fgag|f2 d2 d2 ed||
^cAcA B2 ed|^cAcA E2 ed|^cAcA B2 ed|^c2 A2 A2 ed|
^cAcA B2 ed|^cAcA E2 ed|^cAcA B2 ed|^c2 A2 A2 AB||
|:cdec BcdB|ABAF GF E2|cdec BcdB|1 c2 A2 A2 AB:|2 c2 A2A2||

